Gruvbox-Plus-Dark/actions/16/image-crop.svg

<svg xmlns="http://www.w3.org/2000/svg" width="16" height="16" viewBox="0 0 16 16">
 <defs>
  <style id="current-color-scheme" type="text/css">
   .ColorScheme-Text { color:#ebdbb2; } .ColorScheme-Highlight { color:#458588; }
  </style>
 </defs>
 <path style="fill:currentColor" class="ColorScheme-Text" d="M 3 0 L 3 2 L 5 2 L 5 0 L 3 0 z M 0 3 L 0 5 L 11 5 L 11 16 L 13 16 L 13 5 L 13 4.0039062 C 13 4.0039062 13 3.0039062 12 3.0039062 L 0 3 z M 3 6 L 3 12.003906 C 3 13.003906 4 13.003906 4 13.003906 L 5.5 13.003906 L 10 13 L 10 11 L 5 11 L 5 6 L 3 6 z M 14 11 L 14 13 L 16 13 L 16 11 L 14 11 z"/>
</svg>

<svg width="16" height="16" version="1.1" viewBox="0 0 16 16" xmlns="http://www.w3.org/2000/svg">
  <defs>
    <style type="text/css">.ColorScheme-Text { color:#ebdbb2; } .ColorScheme-Highlight { color:#458588; }</style>
  </defs>
  <path class="ColorScheme-Text" d="m3 1v1h2v-1zm-2 2v2h10v10h2v-11s0-1-1-1zm2 3v6.004c0 1 1 1 1 1h1.5l4.5-0.003906v-2h-5v-5zm11 5v2h1v-2z" fill="currentColor"/>
</svg>
